app/assets/images/logow.svg

<?xml version="1.0" encoding="UTF-8"?>
<svg width="104px" height="80px" viewBox="0 0 104 80" version="1.1" xmlns="http://www.w3.org/2000/svg" xmlns:xlink="http://www.w3.org/1999/xlink">
    <!-- Generator: Sketch 46 (44423) - http://www.bohemiancoding.com/sketch -->
    <title>logo_b</title>
    <desc>Created with Sketch.</desc>
    <defs></defs>
    <g id="Page-1" stroke="none" stroke-width="1" fill="none" fill-rule="evenodd">
        <g id="Artboard" transform="translate(-8.000000, -41.000000)">
            <g id="logo_b" transform="translate(8.000000, 41.000000)">
                <path d="M58.0891891,28.91222 L64.3545354,18.3823669 L66.2919335,9.07044642 L73.1261595,2.79045989 L85.5724961,6.08940486 L89.427772,14.0251383 L92.6242349,24.3409643 L95.135393,38.0366054 L100.414263,51.7231835 L97.6047216,61.8584459 L86.6245054,66.3439514 L95.8556035,60.5018594 C84.7863517,66.3735112 76.0779084,66.0752722 69.7302734,59.6071423 C69.0706495,52.8664405 68.7920292,46.2886235 68.8944126,39.8736914 L58.0891891,31.8216028 L58.0891891,28.91222 Z" id="Path-2" fill="#08A045"></path>
                <path d="M98.015,35.365 C101.302,39.504 104.171,44.316 103.646,51.657 C102.864,62.564 95.322,68.54 86.275,71.065 C86.197,73.662 86.432,76.574 86.155,78.972 C83.837,78.894 81.206,79.129 79.087,78.852 C79.045,73.847 79.12,69.062 79.207,64.476 C91.167,66.283 99.922,55.502 95.739,44.35 C94.656,41.462 92.193,39.053 89.63,37.402 C94.41,31.481 90.856,21.562 84.598,20.031 C85.433,17.688 85.682,14.784 84.718,12.484 C81.29,4.298 66.71,6.146 67.826,17.036 C67.926,18.006 68.319,18.702 68.545,20.031 C65.993,21.137 64.086,22.283 62.555,24.943 C61.802,26.251 60.556,28.609 60.997,30.214 C61.248,31.13 64.506,32.713 65.549,33.329 C70.329,36.152 75.857,38.909 79.925,41.715 C79.728,44.472 79.99,46.917 79.686,49.502 C77.739,49.433 76.19,49.533 73.816,49.502 C73.595,59.672 73.682,69.62 73.576,78.853 C67.99,79.089 21.011,78.993 6.489,78.973 C6.419,70.398 6.585,58.057 6.489,49.622 C4.432,49.258 2.035,49.622 0.139,49.383 C0.89,47.079 -0.557,43.999 0.259,41.836 C0.615,40.892 3.703,39.509 5.051,38.721 C15.128,32.826 24.738,27.069 35,21.348 C36.3,20.623 38.811,18.503 39.912,18.473 C40.765,18.449 42.598,19.983 43.506,20.509 C46.986,22.527 50.813,24.78 54.048,26.499 C55.382,22.322 57.631,19.06 60.637,16.556 C60.473,6.593 68.817,-1.589 79.445,0.263 C85.957,1.398 90.961,6.341 92.144,12.722 C92.333,13.738 91.994,15.112 92.383,16.436 C92.655,17.358 93.905,17.885 94.659,18.832 C97.758,22.718 100.049,29.202 98.015,35.365 Z M65.789,49.621 C65.789,47.769 66.271,43.481 65.789,42.433 C65.545,41.904 63.752,41.141 62.674,40.516 C59.381,38.607 55.944,36.511 53.09,34.885 C48.357,32.188 44.681,29.406 40.272,27.338 C39.953,27.188 39.776,27.516 39.673,27.577 C31.231,32.62 22.483,37.245 14.156,42.432 C14.251,52.911 13.809,60.835 14.156,71.304 C31.035,71.413 48.007,71.371 65.67,71.304 C65.738,64.009 65.789,57.694 65.789,49.621 Z" id="Shape" fill="#FFFFFF" fill-rule="nonzero"></path>
            </g>
        </g>
    </g>
</svg>

<?xml version="1.0" encoding="iso-8859-1"?>
<!-- Generator: Adobe Illustrator 19.2.0, SVG Export Plug-In . SVG Version: 6.00 Build 0)  -->
<svg version="1.1" xmlns="http://www.w3.org/2000/svg" xmlns:xlink="http://www.w3.org/1999/xlink" x="0px" y="0px"
	 viewBox="0 0 103.708 79.008" style="enable-background:new 0 0 103.708 79.008;" xml:space="preserve">
<g id="John_x5F_Hoole_x5F_Estate_x5F_Agents">
	<path fill="#fff" style="fill-rule:evenodd;clip-rule:evenodd;" d="M98.015,35.365c3.287,4.139,6.156,8.951,5.631,16.292
		c-0.782,10.907-8.324,16.883-17.371,19.408c-0.078,2.597,0.157,5.509-0.12,7.907c-2.318-0.078-4.949,0.157-7.068-0.12
		c-0.042-5.005,0.033-9.79,0.12-14.376c11.96,1.807,20.715-8.974,16.532-20.126c-1.083-2.888-3.546-5.297-6.109-6.948
		c4.78-5.921,1.226-15.84-5.032-17.371c0.835-2.343,1.084-5.247,0.12-7.547c-3.428-8.186-18.008-6.338-16.892,4.552
		c0.1,0.97,0.493,1.666,0.719,2.995c-2.552,1.106-4.459,2.252-5.99,4.912c-0.753,1.308-1.999,3.666-1.558,5.271
		c0.251,0.916,3.509,2.499,4.552,3.115c4.78,2.823,10.308,5.58,14.376,8.386c-0.197,2.757,0.065,5.202-0.239,7.787
		c-1.947-0.069-3.496,0.031-5.87,0c-0.221,10.17-0.134,20.118-0.24,29.351c-5.586,0.236-52.565,0.14-67.087,0.12
		c-0.07-8.575,0.096-20.916,0-29.351c-2.057-0.364-4.454,0-6.35-0.239c0.751-2.304-0.696-5.384,0.12-7.547
		c0.356-0.944,3.444-2.327,4.792-3.115C15.128,32.826,24.738,27.069,35,21.348c1.3-0.725,3.811-2.845,4.912-2.875
		c0.853-0.024,2.686,1.51,3.594,2.036c3.48,2.018,7.307,4.271,10.542,5.99c1.334-4.177,3.583-7.439,6.589-9.943
		c-0.164-9.963,8.18-18.145,18.808-16.293c6.512,1.135,11.516,6.078,12.699,12.459c0.189,1.016-0.15,2.39,0.239,3.714
		c0.272,0.922,1.522,1.449,2.276,2.396C97.758,22.718,100.049,29.202,98.015,35.365z M65.789,49.621c0-1.852,0.482-6.14,0-7.188
		c-0.244-0.529-2.037-1.292-3.115-1.917c-3.293-1.909-6.73-4.005-9.584-5.631c-4.733-2.697-8.409-5.479-12.818-7.547
		c-0.319-0.15-0.496,0.178-0.599,0.239c-8.442,5.043-17.19,9.668-25.517,14.855c0.095,10.479-0.347,18.403,0,28.872
		c16.879,0.109,33.851,0.067,51.514,0C65.738,64.009,65.789,57.694,65.789,49.621z"/>
</g>
<g id="Layer_1">
</g>
</svg>
